X: 3
T: Out on the Ocean / The Portroe Jig
N: page 1
N: hexatonic
C: F. O'Neill.
B: O'Neill's Music of Ireland
N: O'Neill's - 795
R: Jig
M: 6/8
K: G
"G"~B3 BAG|BdB "D"~A3|"C"GED G2 A|"A7"BdB "D" AGA|"G"~B3 BAG|BdB "D"~A3|
"C"GED G2 A|[1"D"BGF G2A:|[2 "D"BGF "G"GBd|: "Em"ege edB|ege edB|"D"d3 def|
"C"gfe "D"dBA| "G"G2A B2d|"Em"ege dBA|"C"GED G2 A|[1"D"BGF "G"GBd:|[2"D"BGF G3|


